X:0063
T:My Mother's ay Glowring o'er me.
T:A Health to Betty
T:Katy's Answer
N:17th century; in the same tune family as Stingo, Cold and Raw,
N:or Lulle Me Beyond Thee; always G minor in the older versions
M:6/8
L:1/8
Q:3/8=90
I: :: ::
% B, D E ^F G A B c d e ^f g 
Z:Jack Campin * www.campin.me.uk * 2009
K:E Minor
B,|E>FE D2B,|G>AG FGA|B>cB A2G |d3 B2
e |dBG  GdB |AFD  DBA|G>FE FDB,|G3 F2:|
B |e>fe d2B |e>fg f2e|dBg  A2G |d3 efg|
   dBG  GdB |AFD  DBA|G>FE FDB,|G3 F2:|

